X: 26
T:Long Note, The
R:slide
H:Also as a reel, #534
Z:id:hn-slide-42
M:6/8
K:Dmix
~D3 D2A|A2G E2F|G2E ~E3|cBA B2G|
~D3 D2A|A2G E2G|[1 ABA G2A|E2A G2E:|[2 ABA G2A|E2A D3||
|:ded d2B|c2A d2B|c2A d2B|[1 c2A G3|ded d2B|c2A Bcd|e2a a2g|
e2d d2c:|[2 c2A G2E|D2E F2G|A2d d2c|ABA G2A|E2A D3||
~a3 a2b|a2f d2f|g2f g2a|g2e ^c2e|~a3 a2g|a2f d2f|e2a a2g|efe d2f|
~a3 a2b|a2f d2f|g2e f2d|e2d ^c2B|A2B ^c2d|efe d2B|ABA G2A|E2A G2E||
